public/steps/puzzle.svg

<svg width="32" height="32" viewBox="0 0 32 32" fill="none" xmlns="http://www.w3.org/2000/svg">
<path d="M30.7309 16.044L27.2961 12.9527L28.3215 12.1148C28.7805 11.7377 29.1691 11.2823 29.4692 10.7697C30.6035 8.80459 30.2734 6.39203 28.6477 4.76641C27.022 3.14078 24.6095 2.81072 22.6445 3.94503C22.132 4.24519 21.6766 4.63373 21.2995 5.09266L20.4615 6.11809L17.3702 2.68334L17.334 2.64516C17.0525 2.36428 16.6711 2.20654 16.2734 2.20654C15.8757 2.20654 15.4943 2.36428 15.2127 2.64516L11.1127 6.74547L11.1871 8.22672L13.2563 9.91772C13.5327 10.1435 13.7671 10.4162 13.9488 10.7233C14.6242 11.8934 14.4219 13.3358 13.4453 14.3124C12.4687 15.289 11.0265 15.4913 9.85616 14.816C9.54882 14.6342 9.2759 14.3997 9.04991 14.1232L7.35947 12.0544L5.87822 11.9801L1.42447 16.4338C1.28518 16.5731 1.17468 16.7385 1.0993 16.9205C1.02391 17.1025 0.985107 17.2975 0.985107 17.4945C0.985107 17.6915 1.02391 17.8866 1.0993 18.0686C1.17468 18.2506 1.28518 18.4159 1.42447 18.5552L12.3843 29.5152C12.8486 29.9795 13.3998 30.3478 14.0064 30.599C14.613 30.8503 15.2632 30.9796 15.9198 30.9796C16.5765 30.9796 17.2267 30.8503 17.8333 30.599C18.4399 30.3478 18.9911 29.9795 19.4554 29.5152L30.7688 18.2015C31.0497 17.9199 31.2074 17.5385 31.2074 17.1408C31.2074 16.7432 31.0497 16.3618 30.7688 16.0802L30.7309 16.044ZM18.0412 28.101C17.7626 28.3796 17.4319 28.6005 17.0679 28.7513C16.7039 28.9021 16.3138 28.9797 15.9198 28.9797C15.5258 28.9797 15.1357 28.9021 14.7718 28.7513C14.4078 28.6005 14.0771 28.3796 13.7985 28.101L3.19191 17.4943L6.51066 14.1759L7.50504 15.393L7.51129 15.4004C7.88836 15.8594 8.34375 16.2479 8.85635 16.5481C10.8214 17.6824 13.2339 17.3523 14.8596 15.7266C16.4853 14.1009 16.8153 11.6885 15.681 9.72347C15.3809 9.21087 14.9923 8.75548 14.5333 8.37841L13.3089 7.37778L16.2542 4.43253L19.7553 8.32259L21.2729 8.28641L22.8393 6.36953C23.065 6.09323 23.3377 5.85886 23.6448 5.67716C24.8149 5.00172 26.2573 5.20409 27.2339 6.18066C28.2105 7.15722 28.4129 8.59941 27.7375 9.76978C27.5558 10.0769 27.3214 10.3496 27.045 10.5753L25.1282 12.1417L25.0919 13.6593L28.9821 17.1604L18.0412 28.101Z" fill="#94A3B8"/>
</svg>

<svg xmlns="http://www.w3.org/2000/svg" width="32" height="32" fill="none"><path fill="#94A3B8" d="m30.73 16.04-3.43-3.09 1.02-.84a4.92 4.92 0 0 0 .33-7.35 4.92 4.92 0 0 0-7.35.33l-.84 1.03-3.09-3.44-.04-.03a1.5 1.5 0 0 0-2.12 0l-4.1 4.1.08 1.48 2.07 1.69a2.94 2.94 0 0 1 .19 4.4 2.94 2.94 0 0 1-4.4-.2l-1.7-2.07-1.47-.07-4.46 4.45a1.5 1.5 0 0 0 0 2.13l10.96 10.96a5 5 0 0 0 7.08 0l11.3-11.32a1.5 1.5 0 0 0 0-2.12l-.03-.04ZM18.04 28.1a3 3 0 0 1-4.24 0L3.2 17.5l3.31-3.32 1 1.21v.01a4.92 4.92 0 0 0 7.35.33 4.92 4.92 0 0 0-.33-7.35l-1.22-1 2.94-2.95 3.5 3.9 1.52-.04 1.57-1.92c.23-.28.5-.51.8-.7a2.94 2.94 0 0 1 3.6.51 2.94 2.94 0 0 1-.2 4.4l-1.91 1.56-.04 1.52 3.9 3.5L18.03 28.1Z"/></svg>
